public/src/images/icons/sort.svg

<svg width="12" height="16" viewBox="0 0 12 16" fill="none" xmlns="http://www.w3.org/2000/svg">
<path d="M9.32031 12.1797H11.8203L8.5 15.5L5.17969 12.1797H7.67969V6.32031H9.32031V12.1797ZM3.5 0.5L6.82031 3.82031H4.32031V9.67969H2.67969V3.82031H0.179688L3.5 0.5Z" fill="white"/>
</svg>

<svg width="12" height="16" fill="none" xmlns="http://www.w3.org/2000/svg"><path d="M9.32 12.18h2.5L8.5 15.5l-3.32-3.32h2.5V6.32h1.64v5.86zM3.5.5l3.32 3.32h-2.5v5.86H2.68V3.82H.18L3.5.5z" fill="#fff"/></svg>
